X:1
T:Title
%%score { ( 1 3 ) | ( 2 4 ) }
L:1/8
M:4/4
K:Eb
V:1 treble nm="Grand Piano"
V:3 treble 
V:2 bass 
V:4 bass 
V:1
 z4 z2[Q:1/4=100] E>F | G>_G =G>A B>c B>G | E>E E>[DF] G2 G>G | F6 z2 | G6 z2 | G>_G =G>A B>c B>G | %6
[M:3/4] E>E E>[DF] G2 |[M:1/4] G>G |[M:4/4] z2 B,>B, E2 e>=A |[M:3/4] B6 |[M:1/4] c>d | %11
[M:4/4] e6 z2 |[M:3/4] B6 |[M:1/4] [Ac]>[Ad] |[M:4/4] [Ge]>[Ge] [Ge]>[Ac] [GB]>[EG] [EF]>E | %15
 F6 z2 |[M:3/4] E>D E>[DF] [EG]2 |[M:1/4] [GB]>[GB] |[M:9/8] c>=Bc- c/d/ e2- ed>c | %19
[M:4/4] [GB]>[Ac] [GB]>G E2 [DG]>[DF] |[M:3/4] E6 |] %21
V:2
 z4 z2 [E,G,]>[E,A,E] | [E,B,E]>[E,=A,E] [E,B,E]>[E,_A,E] [E,G,E]>[E,A,E] [E,G,E]>[E,B,E] | %2
 [E,G,]>[E,G,] [E,G,]>[B,,B,] [E,B,E]2 E>E | D6[K:treble] z2 | E6[K:bass] z2 | %5
 [E,B,E]>[E,=A,E] [E,B,E]>[E,_A,E] [E,G,E]>[E,A,E] [E,G,E]>[E,B,E] | %6
[M:3/4] [E,G,]>[E,G,] [E,G,]>[B,,B,] [E,B,E]2 |[M:1/4] E>E |[M:4/4] D4 z4[K:treble] | %9
[M:3/4] D6[K:bass] |[M:1/4][K:treble] A>A |[M:4/4] G6[K:bass][K:treble] z2 |[M:3/4] G6[K:bass] | %13
[M:1/4] [E,E]>[E,E] |[M:4/4] [E,B,]>[E,B,] [E,B,]>[E,E] [E,E]>[E,B,] [C,=A,]>[C,A,] | %15
 [B,,B,]2 [B,,B,]>[B,,B,] [B,,B,]2 [B,,B,]>[B,,A,] | %16
[M:3/4] [E,G,B,]>[B,,F,B,] [E,G,B,]>[B,,B,] [E,B,]2 |[M:1/4] [E,E]>[E,E] | %18
[M:9/8][K:treble] [A,EA]>[A,DA][A,EA]- [A,EA]/[A,DA]/ [A,CA]2- [A,CA][A,DA]>[A,EA] | %19
[M:4/4][K:bass] [E,E]>[E,E] [E,E]>[E,B,E] [E,G,]2 [B,,B,]>[B,,A,] | %20
[M:3/4] [E,G,]2 [A,,A,]>[A,,A,] [E,G,]2 |] %21
V:3
 x8 | x8 | x8 | z2 B,>B, B,2 c>B | z2 B,>B, B,2 E>F | x8 |[M:3/4] x6 |[M:1/4] x2 |[M:4/4] F6 z2 | %9
[M:3/4] z2 B,>B, B,2 |[M:1/4] x2 |[M:4/4] z2 B,>B, B,2 d>c |[M:3/4] z2 E>E E2 |[M:1/4] x2 | %14
[M:4/4] x8 | D2 D>D D2 [DG]>[DF] |[M:3/4] x6 |[M:1/4] x2 |[M:9/8] x9 |[M:4/4] x8 | %20
[M:3/4] z2 C>C B,2 |] %21
V:4
 x8 | x8 | x8 | z2 B,,>B,, B,,2[K:treble] A>G | z2[K:bass] E,>E, E,2 [E,G,]>[E,A,E] | x8 | %6
[M:3/4] x6 |[M:1/4] x2 |[M:4/4] z2 F,>F, [F,=A,]2[K:treble] G>E |[M:3/4] z2[K:bass] B,,>B,, B,,2 | %10
[M:1/4][K:treble] x2 |[M:4/4] z2[K:bass] E,>E, E,2[K:treble] B>A |[M:3/4] z2[K:bass] E,>E, E,2 | %13
[M:1/4] x2 |[M:4/4] x8 | x8 |[M:3/4] x6 |[M:1/4] x2 |[M:9/8][K:treble] x9 |[M:4/4][K:bass] x8 | %20
[M:3/4] x6 |] %21

